resources/svg/edge-o.svg

<svg xmlns="http://www.w3.org/2000/svg" viewBox="0 0 15 15" fill="none"><path d="M4.87473 3.78925C2.51237 3.78925 0.526248 5.40297 0.5 7.40113C0.525868 5.56184 1.27472 3.80666 2.5846 2.5152C3.89448 1.22374 5.66009 0.499818 7.49956 0.5C10.2195 0.5 12.7208 1.80367 13.8796 4.07032C14.0622 4.43124 14.5139 5.24603 14.4997 6.4715C14.4985 7.05674 14.3443 7.63149 14.0524 8.13874C13.7605 8.64599 13.341 9.0681 12.8356 9.3632C12.3347 9.66072 11.763 9.81841 11.1803 9.81981C11.1765 9.81981 9.69403 9.89199 8.90768 9.34515C8.74253 9.22977 8.64957 9.09251 8.64957 8.94978C8.64957 8.77698 8.78573 8.69769 8.83003 8.64027C9.10673 8.28045 9.25656 7.84517 9.25656 7.55151C9.25656 7.25786 9.19641 6.52072 8.85846 5.93724M4.87473 3.78925C5.06612 3.78925 6.15762 3.80784 7.17146 4.33992C8.065 4.80911 8.53309 5.37563 8.85846 5.93724M4.87473 3.78925C2.68997 3.78925 0.826998 5.16952 0.538477 6.95758C0.517056 7.10906 0.506023 7.26005 0.506023 7.40947C0.496554 8.46676 0.722776 9.51287 1.16825 10.4718C1.89627 12.0251 3.16939 13.257 4.74584 13.9336C6.32229 14.6101 8.0923 14.6841 9.71974 14.1416C9.14991 14.3213 8.54789 14.3752 7.95519 14.2997M8.85846 5.93724C9.14987 6.44036 9.23472 7.05779 9.25257 7.40657C9.23233 7.06632 9.1127 6.73882 8.90768 6.46508C8.7443 6.24616 8.53244 6.06806 8.28871 5.94473C8.04498 5.82139 7.776 5.75617 7.50285 5.75418C7.13004 5.74735 6.84622 5.88158 6.67327 5.96337C6.66635 5.96664 6.65962 5.96983 6.65306 5.97292C6.07542 6.25746 5.56704 6.66494 5.16356 7.16677M7.95519 14.2997C7.3625 14.2242 6.79324 14.021 6.28668 13.7042L6.28175 13.702C5.79401 13.3992 5.37131 13.0026 5.03824 12.535C4.65862 12.0149 4.39738 11.418 4.27286 10.7863C4.14834 10.1545 4.16354 9.50315 4.31741 8.87789C4.47127 8.25263 4.76008 7.6686 5.16356 7.16677M7.95519 14.2997C8.38033 14.3539 8.81019 14.3412 9.22961 14.2635C9.40887 14.2254 9.57679 14.1821 9.7131 14.1391L9.78474 14.115C11.2914 13.5941 12.5759 12.5758 13.4267 11.2277C13.4528 11.1866 13.4644 11.1381 13.4598 11.0897C13.4551 11.0412 13.4345 10.9958 13.4011 10.9604C13.3678 10.925 13.3236 10.9018 13.2755 10.8943C13.2275 10.8869 13.1783 10.8957 13.1358 10.9193C12.9491 11.0169 12.7566 11.1029 12.5594 11.1768C11.9316 11.4117 11.2666 11.5314 10.5962 11.5301C8.0086 11.5301 5.75452 9.75012 5.75452 7.46597C5.75783 7.15961 5.84285 6.85969 6.00079 6.59716C6.15821 6.33549 6.38239 6.12043 6.65032 5.974C6.07378 6.25848 5.56642 6.66571 5.16356 7.16677M9.25513 7.46767C9.25532 7.47346 9.25549 7.47915 9.25563 7.48474M9.25563 7.48474C9.25563 7.48467 9.25553 7.48516 9.25563 7.48474Z" stroke="black"/></svg>

<svg xmlns="http://www.w3.org/2000/svg" viewBox="0 0 15 15" fill="none"><path d="M4.875 3.79C2.512 3.79.526 5.402.5 7.4a7 7 0 017-6.9c2.72 0 5.22 1.304 6.38 3.57.182.361.634 1.176.62 2.401a3.357 3.357 0 01-1.664 2.892 3.26 3.26 0 01-1.656.457c-.003 0-1.486.072-2.272-.475-.165-.115-.258-.252-.258-.395 0-.173.136-.252.18-.31.277-.36.427-.795.427-1.088 0-.294-.06-1.031-.399-1.615M4.875 3.79c.191 0 1.283.019 2.296.55.894.47 1.362 1.037 1.687 1.598M4.875 3.79C2.69 3.79.827 5.17.538 6.958a3.228 3.228 0 00-.032.451 7 7 0 009.214 6.732c-.57.18-1.172.234-1.765.159m.903-8.363c.292.503.377 1.12.395 1.47a1.769 1.769 0 00-1.75-1.652c-.373-.008-.657.127-.83.208l-.02.01a4.414 4.414 0 00-1.49 1.194M7.956 14.3a4.131 4.131 0 01-1.668-.596l-.005-.002c-.488-.303-.91-.7-1.244-1.167a4.414 4.414 0 01.126-5.368m2.79 7.133a4.13 4.13 0 001.275-.037c.179-.038.347-.08.483-.124l.072-.024a7.018 7.018 0 003.642-2.887.219.219 0 00-.291-.309 5.13 5.13 0 01-.577.258 5.571 5.571 0 01-1.963.353c-2.587 0-4.841-1.78-4.841-4.064a1.721 1.721 0 01.895-1.492 4.414 4.414 0 00-1.486 1.193m4.091.3v.018m0 0s0 0 0 0z" stroke="currentColor"/></svg>
